app/img/icons/ic--plate.svg

<svg xmlns="http://www.w3.org/2000/svg" preserveAspectRatio="xMidYMid" width="30.062" height="29.969" viewBox="0 0 30.062 29.969"><defs><style>.cls-1{fill:#fff;fill-rule:evenodd}</style></defs><path d="M15.028.001c.672 0 1.28.258 1.722.681.443.424.721 1.003.721 1.646 0 .439-.131.838-.344 1.191a12.528 12.528 0 0 1 6.658 3.299c2.239 2.154 3.633 5.101 3.633 8.376a.67.67 0 0 1-.68.657H3.319c-.377 0-.697-.297-.697-.657v-.016c.008-3.259 1.411-6.206 3.649-8.36a12.531 12.531 0 0 1 6.658-3.299 2.275 2.275 0 0 1-.344-1.191c0-.643.27-1.222.721-1.646a2.48 2.48 0 0 1 1.722-.681zM6.106 29.972c-.385.062-.729-.189-.778-.549a.663.663 0 0 1 .582-.752l9.544-1.317.083-.015c.672-.031 1.197-.549 1.738-1.097l.017-.031.131-.126 5.633-5.642c.229-.25.32-.454.287-.595 0-.031-.025-.063-.041-.087-.033-.015-.058-.038-.091-.046l-.016-.008c-.163-.031-.426.031-.722.251l-5.395 4.027v.016c-.287.204-.59.376-.927.494-.327.117-.68.187-1.041.195l-2.615.141h-.05c-.172 0-.32-.031-.468-.094a.982.982 0 0 1-.442-.321l-.024-.023-.009-.016a1.26 1.26 0 0 1-.196-.423l-.009-.032v-.008a1.256 1.256 0 0 1 .016-.462c.165-.58.239-1.088.222-1.59a5.383 5.383 0 0 0-.394-1.637c-.147-.432-.393-.635-.631-.667a.721.721 0 0 0-.246.032.648.648 0 0 0-.221.156c-.213.219-.304.619-.115 1.128l.008.032c.255.666.328 1.198.255 1.731-.099.541-.345 1.035-.771 1.638a3.75 3.75 0 0 1-1.428 1.246c-.508.227-1.024.345-1.541.447a.698.698 0 0 1-.82-.525c-.074-.345.156-.69.534-.768.434-.079.86-.18 1.196-.345.328-.157.648-.4.91-.791.328-.447.509-.784.558-1.105.041-.298-.016-.635-.18-1.082l-.017-.031c-.394-1.034-.139-1.92.394-2.476H1.17c-.639 0-1.156-.486-1.156-1.097s.517-1.097 1.156-1.097h27.716c.648 0 1.164.486 1.164 1.097s-.516 1.097-1.164 1.097h-4.593l.033.015c.173.204.304.455.37.73.115.533-.066 1.167-.64 1.762l-5.617 5.642-.147.141c-.763.752-1.444 1.457-2.665 1.536l-9.521 1.301zm5.765-11.127c.23.25.426.541.574.924v.008c.287.737.427 1.388.468 2.022.032.556-.041 1.105-.181 1.692l2.296-.117c.246-.008.443-.047.64-.11.196-.078.377-.172.566-.321v.008l5.403-4.027.074-.079h-9.84zm3.649 8.509l.017-.015-.017.015zm1.755-1.112l.017-.031-.017.031zm5.92-6.535l-.443-.815c-.114.345.082.705.443.815zm-.377-11.949a11.251 11.251 0 0 0-7.79-3.095 11.243 11.243 0 0 0-7.774 3.095c-1.853 1.763-3.042 4.137-3.221 6.762h21.983c-.173-2.625-1.37-4.999-3.198-6.762zm-7.044-6.135a1.057 1.057 0 0 0-.746-.298c-.279 0-.558.11-.738.298a.96.96 0 0 0 0 1.418c.172.18.443.29.714.305h.049c.286-.015.532-.125.721-.305.181-.18.304-.431.304-.713 0-.274-.123-.518-.304-.705z" class="cls-1"/></svg>

<svg xmlns="http://www.w3.org/2000/svg" xmlns:xlink="http://www.w3.org/1999/xlink" preserveAspectRatio="xMidYMid" width="30.062" height="29.969" viewBox="0 0 30.062 29.969">
  <defs>
    <style>
      .cls-1 {
        fill: #fff;
        fill-rule: evenodd;
      }
    </style>
  </defs>
  <path d="M15.028,0.001 C15.700,0.001 16.308,0.259 16.750,0.682 C17.193,1.106 17.471,1.685 17.471,2.328 C17.471,2.767 17.340,3.166 17.127,3.519 C19.702,3.934 22.015,5.125 23.785,6.818 C26.024,8.972 27.418,11.919 27.418,15.194 C27.418,15.554 27.115,15.851 26.738,15.851 L26.721,15.851 L3.319,15.851 C2.942,15.851 2.622,15.554 2.622,15.194 L2.622,15.178 C2.630,11.919 4.033,8.972 6.271,6.818 C8.042,5.125 10.354,3.934 12.929,3.519 C12.715,3.166 12.585,2.767 12.585,2.328 C12.585,1.685 12.855,1.106 13.306,0.682 C13.749,0.259 14.355,0.001 15.028,0.001 L15.028,0.001 ZM6.106,29.972 L6.106,29.972 C5.721,30.034 5.377,29.783 5.328,29.423 C5.270,29.062 5.533,28.718 5.910,28.671 L15.454,27.354 L15.537,27.339 C16.209,27.308 16.734,26.790 17.275,26.242 L17.292,26.211 L17.423,26.085 L23.056,20.443 C23.285,20.193 23.376,19.989 23.343,19.848 L23.343,19.848 L23.343,19.848 C23.343,19.817 23.318,19.785 23.302,19.761 C23.269,19.746 23.244,19.723 23.211,19.715 L23.195,19.707 L23.195,19.707 C23.032,19.676 22.769,19.738 22.473,19.958 L17.078,23.985 L17.078,24.001 C16.791,24.205 16.488,24.377 16.151,24.495 C15.824,24.612 15.471,24.682 15.110,24.690 L12.495,24.831 L12.478,24.831 L12.445,24.831 C12.273,24.831 12.125,24.800 11.977,24.737 C11.798,24.675 11.658,24.565 11.535,24.416 L11.511,24.393 L11.502,24.377 C11.420,24.251 11.338,24.110 11.306,23.954 L11.297,23.922 L11.297,23.914 C11.273,23.750 11.280,23.609 11.313,23.452 L11.313,23.452 C11.478,22.872 11.552,22.364 11.535,21.862 C11.494,21.352 11.387,20.835 11.141,20.225 C10.994,19.793 10.748,19.590 10.510,19.558 C10.437,19.551 10.354,19.566 10.264,19.590 C10.191,19.613 10.117,19.676 10.043,19.746 C9.830,19.965 9.739,20.365 9.928,20.874 L9.936,20.906 C10.191,21.572 10.264,22.104 10.191,22.637 C10.092,23.178 9.846,23.672 9.420,24.275 C9.009,24.878 8.510,25.254 7.992,25.521 C7.484,25.748 6.968,25.866 6.451,25.968 C6.074,26.038 5.714,25.811 5.631,25.443 C5.557,25.098 5.787,24.753 6.165,24.675 C6.599,24.596 7.025,24.495 7.361,24.330 C7.689,24.173 8.009,23.930 8.271,23.539 C8.599,23.092 8.780,22.755 8.829,22.434 C8.870,22.136 8.813,21.799 8.649,21.352 L8.632,21.321 C8.238,20.287 8.493,19.401 9.026,18.845 L1.170,18.845 C0.531,18.845 0.014,18.359 0.014,17.748 C0.014,17.137 0.531,16.651 1.170,16.651 L28.886,16.651 C29.534,16.651 30.050,17.137 30.050,17.748 C30.050,18.359 29.534,18.845 28.886,18.845 L24.293,18.845 L24.326,18.860 C24.499,19.064 24.630,19.315 24.696,19.590 C24.811,20.123 24.630,20.757 24.056,21.352 L18.439,26.994 L18.292,27.135 L18.292,27.135 C17.529,27.887 16.848,28.592 15.627,28.671 L6.106,29.972 L6.106,29.972 ZM11.871,18.845 L11.871,18.845 C12.101,19.095 12.297,19.386 12.445,19.769 L12.445,19.777 C12.732,20.514 12.872,21.165 12.913,21.799 C12.945,22.355 12.872,22.904 12.732,23.491 L15.028,23.374 C15.274,23.366 15.471,23.327 15.668,23.264 L15.668,23.264 C15.864,23.186 16.045,23.092 16.234,22.943 L16.234,22.951 L21.637,18.924 L21.711,18.845 L11.871,18.845 L11.871,18.845 ZM15.520,27.354 L15.520,27.354 L15.537,27.339 L15.520,27.354 L15.520,27.354 ZM17.275,26.242 L17.275,26.242 L17.292,26.211 L17.275,26.242 L17.275,26.242 ZM23.195,19.707 L23.195,19.707 L22.752,18.892 C22.638,19.237 22.834,19.597 23.195,19.707 L23.195,19.707 ZM22.818,7.758 L22.818,7.758 C20.817,5.846 18.062,4.663 15.028,4.663 C12.011,4.663 9.255,5.846 7.254,7.758 C5.401,9.521 4.212,11.895 4.033,14.520 L26.016,14.520 C25.843,11.895 24.646,9.521 22.818,7.758 L22.818,7.758 ZM15.774,1.623 L15.774,1.623 C15.578,1.435 15.323,1.325 15.028,1.325 C14.749,1.325 14.470,1.435 14.290,1.623 C14.093,1.810 13.978,2.054 13.978,2.328 C13.978,2.610 14.093,2.861 14.290,3.041 C14.462,3.221 14.733,3.331 15.004,3.346 L15.012,3.346 L15.028,3.346 L15.036,3.346 L15.053,3.346 C15.339,3.331 15.585,3.221 15.774,3.041 C15.955,2.861 16.078,2.610 16.078,2.328 C16.078,2.054 15.955,1.810 15.774,1.623 L15.774,1.623 Z" class="cls-1"/>
</svg>
